X:610
T:Rambling Pitchfork, The
R:jig
Z:Transcribed by Dave Marshall
M:6/8
K:D
|:~F3 AFF|dFF AGF|~G3 ABc|ded cAG|
~F3 AFF|dFF AGF|~G3 ~B3| AFD D3:|
|:~d3 ~f3|ecA AFA|dcd efg|faf gfe|
~d3 ~f3 |ecA AGF|~G3 ~B3| AFD D3:|
